X: 37949
T: Spancil Hill
R: waltz
M: 3/4
K: Edorian
(dc)|B4 E2|B3 c B2|A4 F2|D4 E2|
F2 A2 F2|E4 D2|E6-|E4 (FA)|
B4 e2|e4 f2|e4 d2|B4 c2|
d4 e2|d2 c2 B2|A6-|A4 (FA)|
B4 e2|e4 f2|e4 d2|B4 c2|
d4 e2|d2 c2 B2|A6-|A4 (dc)|
B4 E2|B3 c B2|A4 F2|D4 E2|
F2 A2 F2|E4 D2|E6-|E4|

